src/_assets/sidebar/community-icon.svg

<svg width="24" height="24" viewBox="0 0 24 24" fill="none" xmlns="http://www.w3.org/2000/svg">
<path d="M3.3744 11.9351L3.37442 11.9351L6.66572 9.06497L6.7 9.03508V8.9896V4.9C6.7 4.68783 6.78429 4.48434 6.93431 4.33431C7.08434 4.18429 7.28783 4.1 7.5 4.1H20.1C20.3122 4.1 20.5157 4.18429 20.6657 4.33431C20.8157 4.48434 20.9 4.68783 20.9 4.9V19.3C20.9 19.5122 20.8157 19.7157 20.6657 19.8657C20.5157 20.0157 20.3122 20.1 20.1 20.1H3.9C3.68783 20.1 3.48434 20.0157 3.33431 19.8657C3.18429 19.7157 3.1 19.5122 3.1 19.3V12.5383C3.09999 12.424 3.12447 12.311 3.17181 12.2069C3.21914 12.1029 3.28822 12.0102 3.3744 11.9351ZM9.2 18.4V18.5H9.3H12H12.1V18.4V12.9478V12.9023L12.0657 12.8724L8.46572 9.73323L8.4 9.67592L8.33428 9.73323L4.73428 12.8724L4.7 12.9023V12.9478V18.4V18.5H4.8H7.5H7.6V18.4V15.7C7.6 15.2582 7.95817 14.9 8.4 14.9C8.84183 14.9 9.2 15.2582 9.2 15.7V18.4ZM13.7 18.4V18.5H13.8H19.2H19.3V18.4V5.8V5.7H19.2H8.4H8.3V5.8V7.7143V7.8143H8.4C8.5873 7.8143 8.7751 7.87991 8.92534 8.01176L8.92559 8.01198L13.4256 11.9351L13.4256 11.9351C13.5118 12.0102 13.5809 12.1029 13.6282 12.2069C13.6755 12.311 13.7 12.424 13.7 12.5383V18.4ZM15.7 11.3H17.3V12.9H15.7V11.3ZM15.7 14.9H17.3V16.5H15.7V14.9ZM15.7 7.7H17.3V9.3H15.7V7.7ZM12.1 7.7H13.7V9.3H12.1V7.7Z" fill="#485F7D" stroke="white" stroke-width="0.2"/>
</svg>

<svg xmlns="http://www.w3.org/2000/svg" width="24" height="24" fill="none"><path fill="#485F7D" stroke="#fff" stroke-width=".2" d="m3.374 11.935 3.292-2.87.034-.03V4.9a.8.8 0 0 1 .8-.8h12.6a.8.8 0 0 1 .8.8v14.4a.8.8 0 0 1-.8.8H3.9a.8.8 0 0 1-.8-.8v-6.762a.8.8 0 0 1 .274-.603ZM9.2 18.4v.1h2.9v-5.598l-.034-.03-3.6-3.139-.066-.057-.066.057-3.6 3.14-.034.03V18.5h2.9v-2.8a.8.8 0 0 1 1.6 0zm4.5 0v.1h5.6V5.7h-11v2.114h.1c.187 0 .375.066.525.198l4.5 3.923a.8.8 0 0 1 .275.603zm2-7.1h1.6v1.6h-1.6zm0 3.6h1.6v1.6h-1.6zm0-7.2h1.6v1.6h-1.6zm-3.6 0h1.6v1.6h-1.6z"/></svg>
